X:629
M:C|
L:1/8
K:C
a|gcec gcfa|gcec Bdfa|gcac gcec|fdBg ecca|gcec gcfa|
gcec dfBg|ecBc Gcec|fdgd ec~c||

